!!!!SEGMENT: pl-cz--iii-594b--001_rzepko-adolf--missa-kyrie.krn
!!!cenid: 18xx:1134
!!!COM: Rzepko, Adolf
!!!COM-rismID: pe30020315
!!!CDT: 1825-1892
!!!CNT: Polish
!!!OPR: Missa
!!!OTL: Kyrie
!!!OMV: 001
!!!PDT: 1873
!!!AGN: Sacred; Mass
!!!SMS-siglum: PL-CZ
!!!SMS-shelfmark: III-594b
!!!SMS-shelfwork: 001-001 M
!!!SMS-variant:
!!!SMS-altvar:
!!!NIFC-rismSourceID: 300001137
!!!NIFC-rismChildID: 300001137
!!!NIFC-islandoraID:
!!!URL-pdf-islandora:
!!!URL-scan:
!!!ONB-nifc: UWAGA: części Mszy: Kyrie, Gloria, Credo, Sanctus, Benedictus, Agnus Dei. Uwaga: msza w źródle druga w kolejności, od skanu nr 0023, RISM ID 300001137.
!!!AIN: 1 clars 3 empty 1 flt 1 organ 1 soprn 2 violn
!!!key: C
**kern	**fba	**dynam	**kern	**dynam	**kern	**dynam	**kern	**dynam	**kern	**text	**dynam	**kern	**dynam	**kern	**dynam	**kern	**dynam	**kern	**dynam
*part9	*part9	*part9	*part8	*part8	*part7	*part7	*part6	*part6	*part5	*part5	*part5	*part4	*part4	*part3	*part3	*part2	*part2	*part1	*part1
*staff9	*	*	*staff8	*	*staff7	*	*staff6	*	*staff5	*staff5	*	*staff4	*	*staff3	*	*staff2	*	*staff1	*
*Iorgan	*	*	*Iempty	*	*Ivioln	*	*Ivioln	*	*Isoprn	*	*	*Iempty	*	*Iempty	*	*Iclars	*	*Iflt	*
*I"Organo.	*	*	*I"Violino in F obligato	*	*I"Violino 2do.	*	*I"Violino 1mo	*	*I"Sopran	*	*	*I"Clarino in C IIdo	*	*I"Clarino in C: 1mo	*	*I"Clarinetto in C	*	*I"Flauto	*
*I'Org.	*	*	*I'V. in F	*	*I'V-no II	*	*I'V-no I	*	*I'S.	*	*	*I'Cl-no II	*	*I'Cl-no I	*	*I'Cl.	*	*I'Fl.	*
*ICklav	*	*	*ICstr	*	*ICstr	*	*ICstr	*	*ICvox	*	*	*ICbras	*	*ICbras	*	*ICww	*	*ICww	*
*clefF4	*	*	*clefG2	*	*clefG2	*	*clefG2	*	*clefC1	*	*	*clefG2	*	*clefG2	*	*clefG2	*	*clefG2	*
*	*	*	*ITrd4c7	*	*	*	*	*	*	*	*	*	*	*	*	*	*	*	*
*k[]	*	*	*k[]	*	*k[]	*	*k[]	*	*k[]	*	*	*k[]	*	*k[]	*	*k[]	*	*k[]	*
*C:	*	*	*C:	*	*C:	*	*C:	*	*C:	*	*	*C:	*	*C:	*	*C:	*	*C:	*
*M4/4	*	*	*M4/4	*	*M4/4	*	*M4/4	*	*M4/4	*	*	*M4/4	*	*M4/4	*	*M4/4	*	*M4/4	*
*met(c)	*	*	*met(c)	*	*met(c)	*	*met(c)	*	*met(c)	*	*	*met(c)	*	*met(c)	*	*met(c)	*	*met(c)	*
*	*	*	*	*	*	*	*	*below	*	*	*	*	*	*	*	*	*	*	*
=1	=1	=1	=1	=1	=1	=1	=1	=1	=1	=1	=1	=1	=1	=1	=1	=1	=1	=1	=1
!LO:TX:a:rj:t=And(an)te	!	!	!	!	!	!	!	!	!	!	!	!	!	!	!	!	!	!LO:TX:t=P:problem=all\right&colon; global	!
!LO:TX:a:t=unisono	!	!	!LO:TX:a:t=Andante	!	!LO:TX:a:t=Andante	!	!LO:TX:a:rj:t=Andante	!	!LO:TX:a:t=2	!	!	!	!	!	!	!LO:TX:a:rj:t=Andante	!	!LO:TX:a:rj:t=Andante	!
!	!	!LO:DY:rj	!	!	!	!LO:DY:rj	!	!LO:DY:rj	!	!	!	!	!	!	!	!	!	!	!
32qqGG/LLL	.	f	32qqG/LLL	.	32qqG/LLL	f	32qqg/LLL	f	.	.	.	.	.	.	.	32qqg/LLL	.	.	.
32qqAA/	.	.	32qqA/	.	32qqA/	.	32qqa/	.	.	.	.	.	.	.	.	32qqa/	.	.	.
!	!	!	!	!	!	!	!	!	!LO:TX:a:rj:t=And(an)te	!	!	!LO:TX:a:rj:t=And(an)te	!	!LO:TX:a:rj:t=Andante	!	!	!	!LO:TX:a:t=1.	!
32qqBB/JJJ	.	.	32qqB/JJJ	.	32qqB/JJJ	.	32qqb/JJJ	.	.	.	.	.	.	.	.	32qqb/JJJ	.	.	.
!	!	!	!	!	!	!	!	!	!	!	!	!	!LO:DY:rj	!	!LO:DY:rj	!	!	!	!
4.C/	.	.	4.c/	.	4.c/	.	4.cc\	.	0r	.	.	4.c/	f	4.cc/	f	4.cc\	.	1r	.
8BB/	.	.	8B/	.	8B/	.	8b\	.	.	.	.	8r	.	8r	.	8b\	.	.	.
8.D/L	.	.	8.d/L	.	8.d/L	.	8.dd\L	.	.	.	.	2r	.	2r	.	8.dd\L	.	.	.
16C/Jk	.	.	16c/K	.	16c/K	.	16cc\K	.	.	.	.	.	.	.	.	16cc\K	.	.	.
8.F/L	.	.	8.f/	.	8.f/	.	8.ff\	.	.	.	.	.	.	.	.	8.ff\	.	.	.
16E/Jk	.	.	16e/Jk	.	16e/Jk	.	16ee\Jk	.	.	.	.	.	.	.	.	16ee\Jk	.	.	.
=2	=2	=2	=2	=2	=2	=2	=2	=2	=2	=2	=2	=2	=2	=2	=2	=2	=2	=2	=2
*2\right	*	*	*2\right	*	*	*	*2\right	*	*	*	*	*	*	*	*	*	*	*2\right	*
!	!	!	!	!	!	!	!	!	!	!	!	!LO:TX:a:t=1.	!	!LO:TX:a:t=1.	!	!	!	!	!LO:DY:rj
2A\ 2AA\	.	.	2a\	.	2a/	.	2aa\	.	.	.	.	1r	.	1r	.	2a/	.	2aa\	f
4G\ 4GG\	.	.	4g\	.	4g/	.	4gg\	.	.	.	.	.	.	.	.	4g/	.	4gg\	.
4r	.	.	4r	.	4r	.	4r	.	.	.	.	.	.	.	.	4r	.	4r	.
=3	=3	=3	=3	=3	=3	=3	=3	=3	=3	=3	=3	=3	=3	=3	=3	=3	=3	=3	=3
*	*	*	*	*	*2\right	*	*	*	*	*	*	*	*	*	*	*2\right	*	*	*
!	!	!LO:DY:rj	!	!LO:DY:rj	!	!LO:DY:rj	!	!	!	!	!	!	!LO:DY:rj	!	!LO:DY:rj	!	!	!	!LO:DY:rj
1G\	6 4	p	1e/ 1c/	p	2gg\	p	2ccc\	p	4.cc\	Ky-	.	1G/	p	1g/	p	2ee\	p	2ccc\	p
.	.	.	.	.	.	.	.	.	8cc\	-ri-	.	.	.	.	.	.	.	.	.
.	.	.	.	.	4gg\	.	4ddd\	.	4dd\	-e	.	.	.	.	.	4ff\	.	4ddd\	.
.	.	.	.	.	(8gg\L	.	4ccc\	.	4cc\	e-	.	.	.	.	.	8ee\L	.	4ccc\	.
.	.	.	.	.	8ff#X\J)	.	.	.	.	.	.	.	.	.	.	8ee-X\J	.	.	.
=4	=4	=4	=4	=4	=4	=4	=4	=4	=4	=4	=4	=4	=4	=4	=4	=4	=4	=4	=4
*	*	*	*	*	*	*	*	*	*2\right	*	*	*	*	*	*	*	*	*	*
2.G\	7 3	.	2.f/ 2.d/	.	2ffn\	.	2ccc\	.	2cc\	-lej-	.	2.G/	.	2.g/	.	2dd\	.	2ccc\	.
.	.	.	.	.	4ff\	.	4bb\	.	4b\	-son	.	.	.	.	.	4dd\	.	4bb\	.
4r	.	.	4r	.	4r	.	4r	.	4r	.	.	4r	.	4r	.	4r	.	4r	.
=5	=5	=5	=5	=5	=5	=5	=5	=5	=5	=5	=5	=5	=5	=5	=5	=5	=5	=5	=5
!	!	!LO:DY:rj	!	!	!	!	!	!LO:DY:rj	!	!	!	!	!	!	!	!	!LO:DY:rj	!	!
32qqAA/LLL	.	f	32qqA/LLL	.	32qqA/LLL	.	32qqa/LLL	f	.	.	.	.	.	.	.	32qqa/LLL	f	.	.
32qqBB/	.	.	32qqB/	.	32qqB/	.	32qqb/	.	.	.	.	.	.	.	.	32qqb/	.	.	.
!	!	!	!	!	!	!	!	!	!LO:TX:a:t=2	!	!	!LO:TX:a:t=2	!	!LO:TX:a:t=2	!	!	!	!LO:TX:a:t=1.	!
32qqC#X/JJJ	.	.	32qqc#X/JJJ	.	32qqc#X/JJJ	.	32qqcc#X/JJJ	.	.	.	.	.	.	.	.	32qqcc#X/JJJ	.	.	.
!	!	!	!	!LO:DY:rj	!	!	!	!	!	!	!	!	!	!	!	!	!	!	!
4.D\	.	.	4.d/	f	4.d/	.	4.dd\	.	0r	.	.	0r	.	0r	.	4.dd\	.	1r	.
8C#X\	.	.	8c#X/	.	8c#X/	.	8cc#X\	.	.	.	.	.	.	.	.	8cc#X\	.	.	.
8.D\L	.	.	8.d/L	.	8.d/L	.	8.dd\L	.	.	.	.	.	.	.	.	8.dd\L	.	.	.
16E\Jk	.	.	16e/K	.	16e/K	.	16ee\K	.	.	.	.	.	.	.	.	16ee\K	.	.	.
8.F\L	.	.	8.f/	.	8.f/	.	8.ff\	.	.	.	.	.	.	.	.	8.ff\	.	.	.
16G\Jk	.	.	16g/Jk	.	16g/Jk	.	16gg\Jk	.	.	.	.	.	.	.	.	16gg\Jk	.	.	.
=6	=6	=6	=6	=6	=6	=6	=6	=6	=6	=6	=6	=6	=6	=6	=6	=6	=6	=6	=6
*^	*	*	*	*	*	*	*	*	*	*	*	*	*	*	*	*	*	*	*
!	!	!	!	!	!	!	!	!	!	!	!	!	!	!	!	!	!	!	!	!LO:DY:rj
2B\	2BB\	.	.	2B/	.	2b/	.	2bb\	.	.	.	.	.	.	.	.	2b\	.	2bb\	f
4A\	4AA\	.	.	4A/	.	4a/	.	4aa\	.	.	.	.	.	.	.	.	4a/	.	4aa\	.
4r	4r	.	.	4r	.	4r	.	4r	.	.	.	.	.	.	.	.	4r	.	4r	.
*v	*v	*	*	*	*	*	*	*	*	*	*	*	*	*	*	*	*	*	*	*
=7	=7	=7	=7	=7	=7	=7	=7	=7	=7	=7	=7	=7	=7	=7	=7	=7	=7	=7	=7
!	!	!LO:DY:rj	!	!LO:DY:rj	!	!LO:DY:rj	!	!	!	!	!	!	!	!	!	!	!LO:DY:rj	!	!LO:DY:rj
2D\	x 3	p	4A/	f	2f/	p	2ff\	.	2ff\	e-	.	2r	.	2r	.	2ff\	p	2fff\	p
.	.	.	4B/	.	.	.	.	.	.	.	.	.	.	.	.	.	.	.	.
2G\	7 3	.	4c/	.	2f/	.	4a/	.	(4a\	-lej-	.	2G\	.	2g/	.	2ff\	.	4aa\	.
.	.	.	4d/	.	.	.	4b/	.	4b\)	.	.	.	.	.	.	.	.	4bb\	.
=8	=8	=8	=8	=8	=8	=8	=8	=8	=8	=8	=8	=8	=8	=8	=8	=8	=8	=8	=8
!LO:TX:a:t=unisono	!	!	!LO:TX:b:t=stac(c)ato	!	!	!LO:DY:rj	!	!	!	!	!	!	!	!	!	!	!	!	!
8C\L	3	f	8c/L	.	8e/L	f	8cc\L	.	4cc\	-son	.	4c\	.	4e/	.	4ee\	.	4ccc\	.
8C\	.	.	8c/	.	8cc/	.	8cc\	.	.	.	.	.	.	.	.	.	.	.	.
8BB\	.	.	8B/	.	8b/	.	8b\	.	4r	.	.	4r	.	4r	.	4r	.	4r	.
8C\J	.	.	8c/J	.	8cc/J	.	8cc\J	.	.	.	.	.	.	.	.	.	.	.	.
8D\L	.	.	8d/L	.	8dd\L	.	8dd\L	.	2r	.	.	2r	.	2r	.	2r	.	2r	.
8C\	.	.	8c/	.	8cc\	.	8cc\	.	.	.	.	.	.	.	.	.	.	.	.
8BB\	.	.	8B/	.	8b\	.	8b\	.	.	.	.	.	.	.	.	.	.	.	.
8C\J	.	.	8c/J	.	8cc\J	.	8cc\J	.	.	.	.	.	.	.	.	.	.	.	.
=9	=9	=9	=9	=9	=9	=9	=9	=9	=9	=9	=9	=9	=9	=9	=9	=9	=9	=9	=9
*rep	*	*	*rep	*	*	*	*	*	*	*	*	*	*	*	*	*	*	*	*
!	!	!	!	!	!	!	!	!	!	!	!LO:DY:rj	!	!LO:DY:rj	!	!LO:DY:rj	!	!	!	!LO:DY:rj
8C\L	3	.	8c/L	.	2a/	.	2aa\	f	(2ff\	Ky-	f	2c/	f	2c/	f	2ff\	.	2fff\	f
8C\	.	.	8c/	.	.	.	.	.	.	.	.	.	.	.	.	.	.	.	.
8BB\	.	.	8B/	.	.	.	.	.	.	.	.	.	.	.	.	.	.	.	.
8C\J	.	.	8c/J	.	.	.	.	.	.	.	.	.	.	.	.	.	.	.	.
!LO:TX:a:t=2	!	!	!	!	!	!	!	!	!	!	!	!	!	!	!	!	!	!	!
8D\L	.	.	8d/L	.	4g/	.	4gg\	.	4ee\)	.	.	4c/	.	4c/	.	4ee\	.	4eee\	.
8C\	.	.	8c/	.	.	.	.	.	.	.	.	.	.	.	.	.	.	.	.
8BB\	.	.	8B/	.	4f#X/	.	4ff#X\	.	4dd#X\	-ri-	.	4c/	.	4c/	.	4dd#X\	.	4ddd#X\	.
8C\J	.	.	8c/J	.	.	.	.	.	.	.	.	.	.	.	.	.	.	.	.
*Xrep	*	*	*Xrep	*	*	*	*	*	*	*	*	*	*	*	*	*	*	*	*
!	!	!	!	!	!	!	!LO:LB:g=original	!	!	!	!	!	!	!	!	!	!	!	!
=10	=10	=10	=10	=10	=10	=10	=10	=10	=10	=10	=10	=10	=10	=10	=10	=10	=10	=10	=10
*rep	*	*	*rep	*	*	*	*	*	*	*	*	*	*	*	*	*	*	*	*
8C\L	3	.	8c/L	.	8g/L	.	4gg\	.	4ee\	-e	.	4c/	.	4c/	.	4ee\	.	4eee\	.
8C\	.	.	8c/	.	8cc/	.	.	.	.	.	.	.	.	.	.	.	.	.	.
8BB\	.	.	8B/	.	8b/	.	4r	.	4r	.	.	4c/	.	4c/	.	4r	.	4r	.
8C\J	.	.	8c/J	.	8cc/J	.	.	.	.	.	.	.	.	.	.	.	.	.	.
!LO:TX:a:t=3	!	!	!	!	!	!	!	!	!	!	!	!	!	!	!	!	!	!	!
8D\L	.	.	8d/L	.	8dd/L	.	2r	.	2r	.	.	2r	.	2r	.	2r	.	2r	.
8C\	.	.	8c/	.	8cc/	.	.	.	.	.	.	.	.	.	.	.	.	.	.
8BB\	.	.	8B/	.	8b/	.	.	.	.	.	.	.	.	.	.	.	.	.	.
8C\J	.	.	8c/J	.	8cc/J	.	.	.	.	.	.	.	.	.	.	.	.	.	.
*Xrep	*	*	*Xrep	*	*	*	*	*	*	*	*	*	*	*	*	*	*	*	*
!	!	!	!	!	!LO:LB:g=original	!	!	!	!	!	!	!	!	!	!	!	!	!	!
=11	=11	=11	=11	=11	=11	=11	=11	=11	=11	=11	=11	=11	=11	=11	=11	=11	=11	=11	=11
*rep	*	*	*rep	*	*	*	*	*	*	*	*	*	*	*	*	*	*	*	*
8C\L	3	.	8c/L	.	2a/	.	2aa\	.	2ff\	e-	.	2c/	.	2c/	.	2ff\	.	2fff\	.
8C\	.	.	8c/	.	.	.	.	.	.	.	.	.	.	.	.	.	.	.	.
8BB\	.	.	8B/	.	.	.	.	.	.	.	.	.	.	.	.	.	.	.	.
8C\J	.	.	8c/J	.	.	.	.	.	.	.	.	.	.	.	.	.	.	.	.
!LO:TX:a:t=4	!	!	!	!	!	!	!	!	!	!	!	!	!	!	!	!	!	!	!
8D\L	.	.	8d/L	.	4g/	.	4gg\	.	(4ee\	-lej-	.	4c/	.	4c/	.	4ee\	.	4eee\	.
8C\	.	.	8c/	.	.	.	.	.	.	.	.	.	.	.	.	.	.	.	.
8BB\	.	.	8B/	.	4f#X/	.	4ff#X\	.	4dd#X\)	.	.	4c/	.	4c/	.	4dd#X\	.	4ddd#X\	.
8C\J	.	.	8c/J	.	.	.	.	.	.	.	.	.	.	.	.	.	.	.	.
*Xrep	*	*	*Xrep	*	*	*	*	*	*	*	*	*	*	*	*	*	*	*	*
=12	=12	=12	=12	=12	=12	=12	=12	=12	=12	=12	=12	=12	=12	=12	=12	=12	=12	=12	=12
*rep	*	*	*rep	*	*	*	*	*	*	*	*	*	*	*	*	*	*	*	*
8C\L	3	.	8c/L	.	8g/L	.	4gg\	.	4ee\	-son	.	2c/	.	2c/	.	4ee\	.	4eee\	.
8C\	.	.	8c/	.	8cc/	.	.	.	.	.	.	.	.	.	.	.	.	.	.
8BB\	.	.	8B/	.	8b/	.	4r	.	4r	.	.	.	.	.	.	4r	.	4r	.
8C\J	.	.	8c/J	.	8cc/J	.	.	.	.	.	.	.	.	.	.	.	.	.	.
!LO:TX:a:t=5	!	!	!	!	!	!	!	!	!	!	!	!	!	!	!	!	!	!	!
8D\L	.	.	8d/L	.	8dd/L	.	2r	.	2r	.	.	4c/	.	4c/	.	2r	.	2r	.
8C\	.	.	8c/	.	8cc/	.	.	.	.	.	.	.	.	.	.	.	.	.	.
8BB\	.	.	8B/	.	8b/	.	.	.	.	.	.	4r	.	4r	.	.	.	.	.
8C\J	.	.	8c/J	.	8cc/J	.	.	.	.	.	.	.	.	.	.	.	.	.	.
*Xrep	*	*	*Xrep	*	*	*	*	*	*	*	*	*	*	*	*	*	*	*	*
=13	=13	=13	=13	=13	=13	=13	=13	=13	=13	=13	=13	=13	=13	=13	=13	=13	=13	=13	=13
!	!	!	!	!	!	!LO:DY:rj	!	!LO:DY:rj	!	!	!	!	!LO:DY:rj	!	!LO:DY:rj	!	!	!LO:TX:a:t=8	!
4r	5 #3	.	4r	ff	4r	f	4r	f	2.ee\	Ky-	.	4r	mf	4r	mf	2.ee\	.	00r	.
4E\	6 4	.	4B/	.	4e/	.	4g#X/	.	.	.	.	4e/	.	4e/	.	.	.	.	.
4E\	7 #3	.	4c/	.	4e/	.	4a/	.	.	.	.	4e/	.	4e/	.	.	.	.	.
4E\	.	.	4e/	.	4g#X/	.	4b/ 4d/	.	4dd\	-ri-	.	4e/	.	4e/	.	4dd\	.	.	.
!LO:LB:g=original	!	!	!	!	!	!	!	!	!	!	!	!	!	!	!	!	!	!	!
=14	=14	=14	=14	=14	=14	=14	=14	=14	=14	=14	=14	=14	=14	=14	=14	=14	=14	=14	=14
4r	.	.	4r	.	4r	.	4r	.	(2dd\	-e	.	4r	.	4r	.	2dd\	.	.	.
4E\	7 #3	.	4e/	.	4g#X/	.	4b/ 4d/	.	.	.	.	4e/	.	4e/	.	.	.	.	.
4AA/	5 3	.	4c/	.	4e/	.	4a/	.	4cc\)	.	.	4e/	.	4e/	.	4cc\	.	.	.
4r	.	.	4r	.	4r	.	4r	.	4r	.	.	4r	.	4r	.	4r	.	.	.
!	!	!	!	!	!	!	!	!	!	!	!	!	!	!LO:LB;g=original	!	!LO:LB:g=original	!	!	!
=15	=15	=15	=15	=15	=15	=15	=15	=15	=15	=15	=15	=15	=15	=15	=15	=15	=15	=15	=15
4r	.	.	4r	.	4r	.	4r	.	(2.gg\	e-	.	4r	.	4r	.	2.gg\	.	.	.
4GG/	5 3	.	4G/	.	4g/	.	4b/ 4d/	.	.	.	.	4G/	.	4g/	.	.	.	.	.
4GG/	6 4	.	4G/	.	4g/	.	4cc/ 4e/	.	.	.	.	4G/	.	4g/	.	.	.	.	.
4GG/	7 3	.	4f/ 4G/	.	4g/	.	4dd/ 4d/	.	4ff\)	.	.	4G/	.	4g/	.	4ff\	.	.	.
!	!	!	!LO:LB:g=original	!	!	!	!	!	!LO:LB:g=original	!	!	!	!	!	!	!	!	!	!
=16	=16	=16	=16	=16	=16	=16	=16	=16	=16	=16	=16	=16	=16	=16	=16	=16	=16	=16	=16
4r	.	.	4r	.	4r	.	4r	.	2ff\	-lej-	.	4G/	.	4r	.	2ff\	.	.	.
4GG/	7	.	4f/ 4G/	.	4g/	.	4b/ 4d/	.	.	.	.	4c/	.	4g/	.	.	.	.	.
4C/	3	.	4c/	.	4g/	.	4cc/ 4e/	.	4ee\	-son	.	4r	.	4e/	.	4ee\	.	.	.
4r	.	.	4r	.	4r	.	4r	.	4r	.	.	4ryy	.	4r	.	4r	.	.	.
!	!	!	!	!	!	!	!	!	!	!	!	!LO:LB:g=original	!	!	!	!	!	!	!
=17	=17	=17	=17	=17	=17	=17	=17	=17	=17	=17	=17	=17	=17	=17	=17	=17	=17	=17	=17
!	!	!	!	!	!	!	!	!	!	!	!	!LO:TX:a:t=2	!	!LO:TX:a:t=2	!	!	!LO:DY:rj	!	!
4D\	.	.	4d/	.	4f/ 4A/	.	4.dd\	.	4.dd\	Ky-	.	0r	.	0r	.	4.f/	mf	00r	.
4D\	.	.	4d/	.	4f/ 4A/	.	.	.	.	.	.	.	.	.	.	.	.	.	.
.	.	.	.	.	.	.	8cc#X\	.	8cc#X\	-ri-	.	.	.	.	.	8e/	.	.	.
4D\	.	.	4d/	.	4f/ 4A/	.	8.dd\L	.	(8.cc#\L	-e	.	.	.	.	.	8.f/L	.	.	.
.	.	.	.	.	.	.	16cc#\K	.	16cc#\Jk)	.	.	.	.	.	.	16e/K	.	.	.
4D\	.	.	4d/	.	4f/ 4A/	.	8.dd\	.	(8.dd\L	e-	.	.	.	.	.	8.f/	.	.	.
.	.	.	.	.	.	.	16ee\Jk	.	16ee\Jk)	.	.	.	.	.	.	16g/Jk	.	.	.
=18	=18	=18	=18	=18	=18	=18	=18	=18	=18	=18	=18	=18	=18	=18	=18	=18	=18	=18	=18
!	!	!	!LO:TX:a:t=Solo	!LO:DY:rj	!	!LO:DY:rj	!	!	!	!	!	!	!	!	!	!	!	!	!
4r	.	.	4r	ff	4r	ff	2gg\	.	2gg\	-lej-	.	.	.	.	.	2b-X/	.	.	.
4C#X\	-7	.	4e\	.	4g/ 4B-X/	.	.	.	.	.	.	.	.	.	.	.	.	.	.
8C#\L	_	.	8d'\L	.	8g/L 8B-/	.	8gg\L	.	(8gg\L	-son	.	.	.	.	.	8b-/L	.	.	.
8D\	5 3	.	8c'\	.	8f/ 8A/	.	8ff\J	.	8ff\J)	.	.	.	.	.	.	8a/	.	.	.
8E\	6\ -5	.	8B-'\	.	8e/ 8c#X/	.	8ee\L	.	(8ee\L	e-	.	.	.	.	.	8g/	.	.	.
8F\J	6 3	.	8A'\J	.	8d/J	.	8dd\J	.	8dd\J)	.	.	.	.	.	.	8f/J	.	.	.
=19	=19	=19	=19	=19	=19	=19	=19	=19	=19	=19	=19	=19	=19	=19	=19	=19	=19	=19	=19
!	!	!	!	!	!	!	!	!	!	!	!	!	!	!	!	!LO:TX:t=P:problem=krzyżyk pod obiegnikiem	!	!	!
4r	.	.	4r	.	4r	.	2ccT\	.	2ccT\	-lej-	.	4r	.	4r	.	2eSS/	.	.	.
4GG/	6 4	.	4c/	.	4e/ 4G/	.	.	.	.	.	.	4G/	.	4e/	.	.	.	.	.
4r	.	.	4r	.	4r	.	4.ee\	.	4.ee\	-son	.	4r	.	4r	.	4.g/	.	.	.
4GG/	7	.	4BnX/	.	4f/ 4G/	.	.	.	.	.	.	4G/	.	4g/	.	.	.	.	.
.	.	.	.	.	.	.	8dd\	.	8dd\	e-	.	.	.	.	.	8fny/	.	.	.
=20	=20	=20	=20	=20	=20	=20	=20	=20	=20	=20	=20	=20	=20	=20	=20	=20	=20	=20	=20
!	!	!	!	!	!	!	!	!	!	!	!	!	!	!	!	!LO:TX:t=P:pion:problem	!	!	!
8r	.	.	8r	.	8r	.	2dd\	.	2dd\	-lej-	.	8r	.	8r	.	1ryy	.	.	.
*	*	*	*	*	*tremolo	*	*	*	*	*	*	*	*	*	*	*	*	*	*
8GG/L	8 3	.	8B/L	.	8g/ 8G/L	.	.	.	.	.	.	8G/L	.	8g/L	.	.	.	.	.
8AA/	7 3	.	8c/	.	8g/ 8G/	.	.	.	.	.	.	8G/	.	8g/	.	.	.	.	.
8BB/J	6 3	.	8d/J	.	8g/ 8G/J	.	.	.	.	.	.	8G/J	.	8g/J	.	.	.	.	.
*	*	*	*	*	*Xtremolo	*	*	*	*	*	*	*	*	*	*	*	*	*	*
4C/	5 3	.	4c/	.	4e/ 4G/	.	4cc\	.	4cc\	-son	.	4c/	.	4e/	.	.	.	.	.
4r	.	.	4r	.	4r	.	4r	.	4r	.	.	4r	.	4r	.	.	.	.	.
=21	=21	=21	=21	=21	=21	=21	=21	=21	=21	=21	=21	=21	=21	=21	=21	=21	=21	=21	=21
!LO:TX:a:t=unisono	!	!LO:DY:rj	!	!	!	!LO:DY:rj	!	!	!LO:TX:a:t=2	!	!	!	!LO:DY:rj	!	!LO:DY:rj	!	!	!	!LO:DY:rj
8E\L	.	f	8et/L	.	8ee\L	f	8eee\L	.	0r	.	.	4e/	f	4e/	f	8ee\L	.	8eee\L	f
8BB\	.	.	8B/	.	8b\	.	8bbt\	.	.	.	.	.	.	.	.	8b\	.	8dddT\	.
8E\	.	.	8e/	.	8ee\	.	8eee\	.	.	.	.	4e/	.	4e/	.	8eet\	.	8eee\	.
8BB\J	.	.	8B/J	.	8b\J	.	8bb\J	.	.	.	.	.	.	.	.	8b\J	.	8ddd\J	.
8G#X\L	.	.	8G#X/L	.	8g#X/L	.	8gg#X\L	.	.	.	.	2r	.	2r	.	8g#X/L	.	8gg#X\L	.
8A\	.	.	8A/	.	8a/	.	8aa\	.	.	.	.	.	.	.	.	8a/	.	8aa\	.
8B\	.	.	8B/	.	8b/	.	8bb\	.	.	.	.	.	.	.	.	8b/	.	8bb\	.
8G#\J	.	.	8G#/J	.	8g#/J	.	8gg#\J	.	.	.	.	.	.	.	.	8g#/J	.	8gg#\J	.
!	!	!	!	!	!LO:LB:g=original	!	!LO:LB:g=original	!	!	!	!	!	!	!	!	!	!	!	!
=22	=22	=22	=22	=22	=22	=22	=22	=22	=22	=22	=22	=22	=22	=22	=22	=22	=22	=22	=22
4E\	.	.	4E/	.	4e/	.	4ee\	.	.	.	.	4e/	.	4e/	.	4e/	.	4ee\	.
(16E\LL	.	.	(16E/LL	.	(16e/LL	.	(16ee\LL	.	.	.	.	4e/	.	4e/	.	16e/LL	.	4r	.
16D#X\	.	.	16D#X/	.	16d#X/	.	16dd#X\	.	.	.	.	.	.	.	.	16d#X/	.	.	.
16E\	.	.	16E/	.	16e/	.	16ee\	.	.	.	.	.	.	.	.	16e/	.	.	.
16D#\JJ)	.	.	16D#/JJ)	.	16d#/JJ)	.	16dd#\JJ)	.	.	.	.	.	.	.	.	16d#/JJ	.	.	.
4E\	.	.	4E/	.	4e/	.	4ee\	.	.	.	.	4e/	.	4e/	.	4e/	.	2r	.
4r	.	.	4r	.	4r	.	4r	.	.	.	.	4r	.	4r	.	4r	.	.	.
=23	=23	=23	=23	=23	=23	=23	=23	=23	=23	=23	=23	=23	=23	=23	=23	=23	=23	=23	=23
*	*	*	*tremolo	*	*tremolo	*	*	*	*	*	*	*	*	*	*	*	*	*	*
!	!	!	!	!	!	!LO:DY:rj	!	!	!	!	!	!	!LO:DY:rj	!	!LO:DY:rj	!	!	!	!LO:DY:rj
2E/ 2EE/	7 5	p	8E/L	f	8e/L	f	2ddd\	.	2dd\	Chri-	.	1e/	p	1e/	p	2b/	.	2bb\	p
.	.	.	8E/	.	8e/	.	.	.	.	.	.	.	.	.	.	.	.	.	.
.	.	.	8E/	.	8e/	.	.	.	.	.	.	.	.	.	.	.	.	.	.
.	.	.	8E/J	.	8e/J	.	.	.	.	.	.	.	.	.	.	.	.	.	.
4E/ 4EE/	6 4	.	8E/L	.	8e/L	.	4ccc\	.	4cc\	-ste	.	.	.	.	.	4a/	.	4aa\	.
.	.	.	8E/	.	8e/	.	.	.	.	.	.	.	.	.	.	.	.	.	.
4E/ 4EE/	5 #3	.	8E/	.	8e/	.	4bb\	.	4b\	e-	.	.	.	.	.	4g#X/	.	4gg#X\	.
.	.	.	8E/J	.	8e/J	.	.	.	.	.	.	.	.	.	.	.	.	.	.
!	!	!	!	!	!	!	!	!	!	!	!	!	!	!	!	!	!	!LO:LB:g=original	!
=24	=24	=24	=24	=24	=24	=24	=24	=24	=24	=24	=24	=24	=24	=24	=24	=24	=24	=24	=24
2E/ 2EE/	7 #3	.	8E/L	.	8e/L	.	2ddd\	.	2dd\	-lej-	.	2e/	.	2e/	.	2b/	.	2bb\	.
.	.	.	8E/	.	8e/	.	.	.	.	.	.	.	.	.	.	.	.	.	.
.	.	.	8E/	.	8e/	.	.	.	.	.	.	.	.	.	.	.	.	.	.
.	.	.	8E/J	.	8e/J	.	.	.	.	.	.	.	.	.	.	.	.	.	.
*	*	*	*Xtremolo	*	*Xtremolo	*	*	*	*	*	*	*	*	*	*	*	*	*	*
8A\L 8AA\	x 3	.	8c/L	.	(8a/L 8e/	.	8ccc\L	.	4cc\	-son	.	4c/	.	4e/	.	8a/L	.	8aa\L	.
*	*	*	*	*	*Xtuplet	*	*Xtuplet	*	*	*	*	*	*	*	*	*	*	*	*
!LO:TX:a:t=unisono	!	!	!LO:TUP:b:problem=klamra łukowa	!	!	!	!	!	!	!	!	!	!	!	!	!LO:TUP:b:problem=klamra łukowa	!	!LO:TUP:a:problem=klamra łukowa	!
24E\L	.	.	24E/L	.	24e/L	.	24ee\L	.	.	.	.	.	.	.	.	24e/L	.	24dd\L	.
24F#X\	.	.	24F#X/	.	24f#X/	.	24ff#X\	.	.	.	.	.	.	.	.	24f#X/	.	24ff#X\	.
24G#X\JJ	.	.	24G#X/JJ	.	24g#X/JJ)	.	24gg#X\JJ	.	.	.	.	.	.	.	.	24g#X/JJ	.	24gg#X\JJ	.
4A\	.	.	4A/	.	4a/	.	4aa\	.	4r	.	.	4r	.	4rg	.	4a/	.	4aa\	.
!LO:LB:g=original	!	!	!	!	!	!	!	!	!	!	!	!	!	!	!	!	!	!	!
=25	=25	=25	=25	=25	=25	=25	=25	=25	=25	=25	=25	=25	=25	=25	=25	=25	=25	=25	=25
!	!	!	!	!	!	!	!	!	!	!	!	!	!	!LO:SIC:o:s:v:t=powinno być 4 a nie 2	!	!	!	!	!
!	!	!	!	!	!	!	!	!	!LO:TX:a:t=2	!	!	!LO:TX:a:t=4	!	!LO:TX:a:t=2	!	!	!	!	!LO:DY:rj
8A\L	.	.	8A/L	.	8a/L	.	8aa\L	.	0r	.	.	00r	.	00r	.	8a/L	.	8aa\L	f
8A\	.	.	8A/	.	8aT/	.	8aaT\	.	.	.	.	.	.	.	.	8aT/	.	8aaT\	.
8c\	.	.	8c/	.	8cc/	.	8ccc\	.	.	.	.	.	.	.	.	8cc/	.	8ccc\	.
8A\J	.	.	8A/J	.	8a/J	.	8aa\J	.	.	.	.	.	.	.	.	8a/J	.	8aa\J	.
8F#X\L	.	.	8F#X/L	.	8f#X/L	.	8ff#X\L	.	.	.	.	.	.	.	.	8f#X/L	.	8ff#X\L	.
8G\	.	.	8F#/	.	8g/	.	8gg\	.	.	.	.	.	.	.	.	8g/	.	8gg\	.
8A\	.	.	8A/	.	8a/	.	8aa\	.	.	.	.	.	.	.	.	8a/	.	8aa\	.
8F#\J	.	.	8F#/J	.	8f#/J	.	8ff#\J	.	.	.	.	.	.	.	.	8f#/J	.	8ff#\J	.
=26	=26	=26	=26	=26	=26	=26	=26	=26	=26	=26	=26	=26	=26	=26	=26	=26	=26	=26	=26
4D\	.	.	4D/	.	4d/	.	4dd\	.	.	.	.	.	.	.	.	4d/	.	4dd\	.
(16D\LL	.	.	16d/LL	.	(16d/LL	.	(16dd\LL	.	.	.	.	.	.	.	.	(16dd\LL	.	4r	.
16C#X\	.	.	16c#X/	.	16c#X/	.	16cc#X\	.	.	.	.	.	.	.	.	16cc#X\	.	.	.
16D\	.	.	16d/	.	16d/	.	16dd\	.	.	.	.	.	.	.	.	16dd\	.	.	.
16C#\JJ)	.	.	16c#/JJ	.	16c#/JJ)	.	16cc#\JJ)	.	.	.	.	.	.	.	.	16cc#\JJ)	.	.	.
4D\	.	.	4d/	.	4d/	.	4dd\	.	.	.	.	.	.	.	.	4dd\	.	2r	.
4r	.	.	4r	.	4r	.	4r	.	.	.	.	.	.	.	.	4r	.	.	.
!	!	!	!LO:LB:g=original	!	!	!	!	!	!	!	!	!	!	!	!	!	!	!	!
=27	=27	=27	=27	=27	=27	=27	=27	=27	=27	=27	=27	=27	=27	=27	=27	=27	=27	=27	=27
*	*	*	*tremolo	*	*tremolo	*	*	*	*	*	*	*	*	*	*	*	*	*	*
!	!	!	!	!LO:DY:rj	!	!	!	!	!	!	!	!	!	!	!	!	!	!	!
2D/ 2DD/	7 3	.	8D/L	f	8d/L	.	2ccc\	.	2cc\	Chry-	.	.	.	.	.	2a/	.	2aa\	p
.	.	.	8D/	.	8d/	.	.	.	.	.	.	.	.	.	.	.	.	.	.
.	.	.	8D/	.	8d/	.	.	.	.	.	.	.	.	.	.	.	.	.	.
.	.	.	8D/J	.	8d/J	.	.	.	.	.	.	.	.	.	.	.	.	.	.
4D/ 4DD/	6 4	.	8D/L	.	8d/L	.	4bb\	.	4b\	-ste	.	.	.	.	.	4g/	.	4gg\	.
.	.	.	8D/	.	8d/	.	.	.	.	.	.	.	.	.	.	.	.	.	.
4D/ 4DD/	7 #3	.	8D/	.	8d/	.	4aa\	.	4a\	e-	.	.	.	.	.	4f#X/	.	4ff#X\	.
.	.	.	8D/J	.	8d/J	.	.	.	.	.	.	.	.	.	.	.	.	.	.
*	*	*	*Xtremolo	*	*Xtremolo	*	*	*	*	*	*	*	*	*	*	*	*	*	*
=28	=28	=28	=28	=28	=28	=28	=28	=28	=28	=28	=28	=28	=28	=28	=28	=28	=28	=28	=28
!	!	!	!	!	!	!LO:DY:rj	!	!	!	!	!	!	!	!	!	!	!	!	!
8G\L 8GG\	x 3	.	8d/L 8B/	.	8g/L 8G/	f	4gg\	.	4g\	-lej-	.	.	.	.	.	4g/	.	4gg\	.
!LO:TX:a:t=unisono	!	!	!	!	!	!	!	!	!	!	!	!	!	!	!	!	!	!	!
8G\J	.	.	8G/J	.	8g/J	.	.	.	.	.	.	.	.	.	.	.	.	.	.
8qF#X/	.	.	(8qF#X/	.	8qf#X/	.	.	.	.	.	.	.	.	.	.	.	.	.	.
8G\L	.	.	8G/L)	.	8g/L	.	4r	.	4g\	-son	.	.	.	.	.	4r	.	4r	.
8G\J	.	.	8G'/J	.	8g/J	.	.	.	.	.	.	.	.	.	.	.	.	.	.
!	!	!	!	!	!LO:TX:a:t=1	!	!	!	!	!	!	!	!	!	!	!	!	!	!
8qF#X/	.	.	(8qF#/	.	8qf#/	.	.	.	.	.	.	.	.	.	.	.	.	.	.
8G\L	.	.	8G/L)	.	8g/L	.	2r	.	2r	.	.	.	.	.	.	2r	.	2r	.
8G\J	.	.	8G'/J	.	8g/J	.	.	.	.	.	.	.	.	.	.	.	.	.	.
8qF#X/	.	.	(8qF#/	.	8qf#/	.	.	.	.	.	.	.	.	.	.	.	.	.	.
8G\L	.	.	8G/L)	.	8g/L	.	.	.	.	.	.	.	.	.	.	.	.	.	.
8G\J	.	.	8G'/J	.	8g/J	.	.	.	.	.	.	.	.	.	.	.	.	.	.
!	!	!	!	!	!	!	!	!	!LO:LB:g=original	!	!	!	!	!	!	!LO:LB:g=original	!	!	!
=29	=29	=29	=29	=29	=29	=29	=29	=29	=29	=29	=29	=29	=29	=29	=29	=29	=29	=29	=29
*	*	*	*rep	*	*	*	*	*	*	*	*	*	*	*	*	*	*	*	*
!	!	!	!	!	!	!	!LO:TX:a:rj:t=Solo	!	!	!	!	!	!LO:DY:rj	!	!LO:DY:rj	!	!LO:DY:rj	!LO:TX:a:t=4	!
2G\ 2GG\	6 4	.	8G'/L	.	8g/L 8G/	.	2cc/ 2e/	.	2cc\	e-	.	2c/	p	2e/	p	2e/	p	00r	.
.	.	.	8G'/J	.	8g/J	.	.	.	.	.	.	.	.	.	.	.	.	.	.
.	.	.	(8qF#X/	.	8qf#X/	.	.	.	.	.	.	.	.	.	.	.	.	.	.
.	.	.	8G/L)	.	8g/L	.	.	.	.	.	.	.	.	.	.	.	.	.	.
.	.	.	8G'/J	.	8g/J	.	.	.	.	.	.	.	.	.	.	.	.	.	.
!	!	!	!	!	!LO:TX:a:t=2	!	!	!	!	!	!	!	!	!	!	!	!	!	!
.	.	.	(8qF#/	.	8qf#/	.	.	.	.	.	.	.	.	.	.	.	.	.	.
4G\ 4GG\	x 7	.	8G/L)	.	8g/L	.	4dd/ 4f/	.	(4dd\	-lej-	.	2r	.	2r	.	4f/	.	.	.
.	.	.	8G'/J	.	8g/J	.	.	.	.	.	.	.	.	.	.	.	.	.	.
.	.	.	(8qF#/	.	8qf#/	.	.	.	.	.	.	.	.	.	.	.	.	.	.
4G\ 4GG\	6 4	.	8G/L)	.	8g/L	.	4cc/ 4e/	.	4cc\)	.	.	.	.	.	.	4e/	.	.	.
.	.	.	8G'/J	.	8g/J	.	.	.	.	.	.	.	.	.	.	.	.	.	.
*	*	*	*Xrep	*	*	*	*	*	*	*	*	*	*	*	*	*	*	*	*
=30	=30	=30	=30	=30	=30	=30	=30	=30	=30	=30	=30	=30	=30	=30	=30	=30	=30	=30	=30
*	*	*	*rep	*	*	*	*	*	*	*	*	*	*	*	*	*	*	*	*
8G\L 8GG\	5 3	.	8G'/L	.	8g/yyL 8G/yy	.	4b/ 4d/	.	4b\	-son	.	1G/	.	1g/	.	4d/	.	.	.
8G\J	.	.	8G'/J	.	8g/Jyy	.	.	.	.	.	.	.	.	.	.	.	.	.	.
8qF#X/	.	.	(8qF#X/	.	8qf#X/yy	.	.	.	.	.	.	.	.	.	.	.	.	.	.
8G\L	.	.	8G/L)	.	8g/Lyy	.	4r	.	4r	.	.	.	.	.	.	4r	.	.	.
8G\J	.	.	8G'/J	.	8g/Jyy	.	.	.	.	.	.	.	.	.	.	.	.	.	.
!	!	!	!	!	!LO:TX:a:t=3	!	!	!	!	!	!	!	!	!	!	!	!	!	!
8qF#/	.	.	(8qF#/	.	8qf#/yy	.	.	.	.	.	.	.	.	.	.	.	.	.	.
8G\L	.	.	8G/L)	.	8g/Lyy	.	2r	.	2r	.	.	.	.	.	.	2r	.	.	.
8G\J	.	.	8G'/J	.	8g/Jyy	.	.	.	.	.	.	.	.	.	.	.	.	.	.
8qF#/	.	.	(8qF#/	.	8qf#/yy	.	.	.	.	.	.	.	.	.	.	.	.	.	.
8G\L	.	.	8G/L)	.	8g/Lyy	.	.	.	.	.	.	.	.	.	.	.	.	.	.
8G\J	.	.	8G'/J	.	8g/Jyy	.	.	.	.	.	.	.	.	.	.	.	.	.	.
*	*	*	*Xrep	*	*	*	*	*	*	*	*	*	*	*	*	*	*	*	*
=31	=31	=31	=31	=31	=31	=31	=31	=31	=31	=31	=31	=31	=31	=31	=31	=31	=31	=31	=31
*	*	*	*rep	*	*	*	*	*	*	*	*	*	*	*	*	*	*	*	*
2G\ 2GG\	6 4	.	8G'/L	.	8g/yyL 8G/yy	.	2ee\ 2g\	.	2ee\	e-	.	2G/	.	2g/	.	2g/	.	.	.
.	.	.	8G'/J	.	8g/Jyy	.	.	.	.	.	.	.	.	.	.	.	.	.	.
.	.	.	(8qF#X/	.	8qf#X/yy	.	.	.	.	.	.	.	.	.	.	.	.	.	.
.	.	.	8G/L)	.	8g/Lyy	.	.	.	.	.	.	.	.	.	.	.	.	.	.
.	.	.	8G'/J	.	8g/Jyy	.	.	.	.	.	.	.	.	.	.	.	.	.	.
!	!	!	!	!	!LO:TX:a:t=4	!	!	!	!	!	!	!	!	!	!	!	!	!	!
.	.	.	(8qF#/	.	8qf#/yy	.	.	.	.	.	.	.	.	.	.	.	.	.	.
4G\ 4GG\	x 7	.	8G/L)	.	8g/Lyy	.	4ff\ 4a\	.	(4ff\	-lej-	.	2r	.	2r	.	4a/	.	.	.
.	.	.	8G'/J	.	8g/Jyy	.	.	.	.	.	.	.	.	.	.	.	.	.	.
.	.	.	(8qF#/	.	8qf#/yy	.	.	.	.	.	.	.	.	.	.	.	.	.	.
4G\ 4GG\	6 4	.	8G/L)	.	8g/Lyy	.	4ee\ 4g\	.	4ee\)	.	.	.	.	.	.	4g/	.	.	.
.	.	.	8G'/J	.	8g/Jyy	.	.	.	.	.	.	.	.	.	.	.	.	.	.
*	*	*	*Xrep	*	*	*	*	*	*	*	*	*	*	*	*	*	*	*	*
=32	=32	=32	=32	=32	=32	=32	=32	=32	=32	=32	=32	=32	=32	=32	=32	=32	=32	=32	=32
*	*	*	*rep	*	*	*	*	*	*	*	*	*	*	*	*	*	*	*	*
8G\L 8GG\	5 3	.	8G'/L	.	8g/yyL 8G/yy	.	4dd/ 4f/	.	4dd\	-son	.	1G/	.	1g/	.	4f/	.	.	.
!LO:TX:a:t=unisono	!	!	!	!	!	!	!	!	!	!	!	!	!	!	!	!	!	!	!
8G\J	.	.	8G'/J	.	8g/Jyy	.	.	.	.	.	.	.	.	.	.	.	.	.	.
8qF#X/	.	.	(8qF#X/	.	8qf#X/yy	.	.	.	.	.	.	.	.	.	.	.	.	.	.
8G\L	.	.	8G/L)	.	8g/Lyy	.	4r	.	4r	.	.	.	.	.	.	4r	.	.	.
8G\J	.	.	8G'/J	.	8g/Jyy	.	.	.	.	.	.	.	.	.	.	.	.	.	.
!	!	!	!	!	!LO:TX:a:t=5	!	!	!	!	!	!	!	!	!	!	!	!	!	!
8qF#/	.	.	(8qF#/	.	8qf#/yy	.	.	.	.	.	.	.	.	.	.	.	.	.	.
8G\L	.	.	8G/L)	.	8g/Lyy	.	2r	.	2r	.	.	.	.	.	.	2r	.	.	.
8G\J	.	.	8G'/J	.	8g/Jyy	.	.	.	.	.	.	.	.	.	.	.	.	.	.
8qF#/	.	.	(8qF#/	.	8qf#/yy	.	.	.	.	.	.	.	.	.	.	.	.	.	.
8G\L	.	.	8G/L)	.	8g/Lyy	.	.	.	.	.	.	.	.	.	.	.	.	.	.
8G\J	.	.	8G'/J	.	8g/Jyy	.	.	.	.	.	.	.	.	.	.	.	.	.	.
*	*	*	*Xrep	*	*	*	*	*	*	*	*	*	*	*	*	*	*	*	*
!	!	!	!	!	!LO:LB:g=original	!	!LO:LB:g=original	!	!	!	!	!	!	!	!	!	!	!	!
=33	=33	=33	=33	=33	=33	=33	=33	=33	=33	=33	=33	=33	=33	=33	=33	=33	=33	=33	=33
!	!	!LO:DY:rj	!	!LO:DY:rj	!	!LO:DY:rj	!	!LO:DY:rj	!	!	!LO:DY:rj	!	!LO:DY:rj	!	!LO:DY:rj	!	!LO:DY:rj	!	!
4C/	3	ff	4e/ 4c/	ff	4g/ 4G/	ff	4ee\ 4cc^\	ff	(4ee\	Chry-	f	4c/	f	4c/	f	4cc\	mf	4eee\	.
4G#X\	7	.	4f/ 4G#X/	.	4b/ 4d/	.	4dd\ 4d^\	.	4dd\)	.	.	4e/	.	4e/	.	4gg#X\	.	4ddd\	.
4A\	3	.	4c/	.	4a/	.	4cc/ 4e^/	.	4cc\	-ste	.	4e/	.	4e/	.	4aa\	.	4ccc\	.
4E\	7 #3	.	4e/	.	4g#X/	.	4b/ 4d^/	.	4b\	e-	.	4e/	.	4r	.	4ee\	.	4bb\	.
!LO:LB:g=original	!	!	!	!	!	!	!	!	!	!	!	!	!	!LO:LB:g=original	!	!	!	!	!
=34	=34	=34	=34	=34	=34	=34	=34	=34	=34	=34	=34	=34	=34	=34	=34	=34	=34	=34	=34
4F\	x 5 3	.	4c/	.	4a/ 4f/	.	4a/ 4f^/	.	(4a\	-lej-	.	4c/	.	4c/	.	4ff\	.	4aa\	.
4C#X\	x 6 5	.	4g/ 4A/	.	4ee/ 4e/	.	4gg\ 4a^\	.	4g\)	.	.	4r	.	4r	.	4cc#X\	.	4gg\	.
4D\	x 5 3	.	4d/ 4A/	.	4dd/ 4f/	.	4ff\ 4a^\	.	4f\	-son	.	2r	.	2r	.	4dd\	.	4ff\	.
4F\	6 5 -3	.	4a-X/ 4c/	.	4dd/ 4f/	.	4aa-X\ 4cc^\	.	4a-X\	e-	.	.	.	.	.	4ff\	.	4aa-X\	.
=35	=35	=35	=35	=35	=35	=35	=35	=35	=35	=35	=35	=35	=35	=35	=35	=35	=35	=35	=35
!	!	!	!	!	!	!	!	!LO:DY:rj	!	!	!	!	!LO:DY:rj	!	!LO:DY:rj	!	!	!	!
2G\ 2GG\	x 6 4	.	2e/ 2G/	.	2e/	.	2gg\	mf	(2g/	-lej-	.	2G/	p	2g/	p	2ee\	.	2gg\	.
4G\ 4GG\	6# -4 2	.	4e-X/	.	4f#X/	.	4aa\ 4cc\	.	4a/	.	.	2r	.	2r	.	4ee-X\	.	4aa\	.
4G\ 4GG\	7n 5 3	.	4d/ 4F/	.	4fn/ 4d/	.	4bb\ 4dd\	.	4b/)	.	.	.	.	.	.	4dd\	.	4bb\	.
=36	=36	=36	=36	=36	=36	=36	=36	=36	=36	=36	=36	=36	=36	=36	=36	=36	=36	=36	=36
!LO:TX:a:t=unisono	!	!	!	!	!	!	!	!	!	!	!	!	!	!	!	!	!	!	!
8C\L	3	.	8g/L 8G'/	.	8cc/L 8e/	.	8ccc'\L	.	4cc\	-son	.	4c/	.	4cc\	.	8cc\L	.	8ccc\L	.
8G\	.	.	8G'/	.	8g/	.	8gg'\	.	.	.	.	.	.	.	.	8g\	.	8gg\	.
8F#X\	.	.	8F#X'/	.	8f#X/	.	8ff#X'\	.	4r	.	.	4r	.	4r	.	8f#X\	.	8ff#X\	.
8G\J	.	.	8G'/J	.	8g/J	.	8gg'\J	.	.	.	.	.	.	.	.	8g\J	.	8gg\J	.
8A\L 8AA\	.	.	8A'/L	.	8a'\L	.	8aa'\L	.	2r	.	.	2r	.	2r	.	8a\L	.	8aa\L	.
8B\ 8BB\	.	.	8B'/	.	8b'\	.	8bb'\	.	.	.	.	.	.	.	.	8b\	.	8bb\	.
8c\ 8C\	.	.	8c'/	.	8cc'\	.	8ccc'\	.	.	.	.	.	.	.	.	8cc\	.	8ccc\	.
8d\J 8D\	.	.	8d'/J	.	8dd'\J	.	8ddd'\J	.	.	.	.	.	.	.	.	8dd\J	.	8ddd\J	.
!	!	!	!	!	!	!	!	!	!	!	!	!LO:LB:g=original	!	!	!	!	!	!	!
=37	=37	=37	=37	=37	=37	=37	=37	=37	=37	=37	=37	=37	=37	=37	=37	=37	=37	=37	=37
*	*	*	*	*	*	*	*tremolo	*	*	*	*	*	*	*	*	*	*	*	*
!	!	!	!	!	!	!	!	!LO:DY:rj	!	!	!	!	!LO:DY:rj	!	!LO:DY:rj	!	!	!	!
4.c#X\ 4.C#X\	3	.	4.e/ 4.c/	.	4.ee\ 4.g\	.	16eee`\LL	ff	4.ee\	Ky-	.	4.c/	f	4.c/	f	4.cc\	.	4.eee\	.
.	.	.	.	.	.	.	16eee`\	.	.	.	.	.	.	.	.	.	.	.	.
.	.	.	.	.	.	.	16eee`\	.	.	.	.	.	.	.	.	.	.	.	.
.	.	.	.	.	.	.	16eee`\JJ	.	.	.	.	.	.	.	.	.	.	.	.
!	!	!	!	!	!	!	!LO:TX:t=P:problem=podwójne staccato	!	!	!	!	!	!	!	!	!	!	!	!
.	.	.	.	.	.	.	16eee`\LL	.	.	.	.	.	.	.	.	.	.	.	.
.	.	.	.	.	.	.	16eee`\	.	.	.	.	.	.	.	.	.	.	.	.
!	!	!	!	!	!	!	!LO:TX:t=P:problem=podwójne staccato	!	!	!	!	!	!	!	!	!	!	!	!
8G#X\	7	.	8b/ 8d/	.	8dd/ 8f/	.	16ddd`\	.	8dd\	-ri-	.	8e/	.	8e/	.	8gg#X\	.	8ddd\	.
.	.	.	.	.	.	.	16ddd`\JJ	.	.	.	.	.	.	.	.	.	.	.	.
!	!	!	!	!	!	!	!LO:TX:t=P:problem=poczwórne staccato	!	!	!	!	!	!	!	!	!	!	!	!
4.A\	3	.	4.a\ 4.c\	.	4.cc/ 4.e/	.	16ccc`\LL	.	4.cc\	-e	.	4.e/	.	4.e/	.	4.aa\	.	4.ccc\	.
.	.	.	.	.	.	.	16ccc`\	.	.	.	.	.	.	.	.	.	.	.	.
.	.	.	.	.	.	.	16ccc`\	.	.	.	.	.	.	.	.	.	.	.	.
.	.	.	.	.	.	.	16ccc`\JJ	.	.	.	.	.	.	.	.	.	.	.	.
!	!	!	!	!	!	!	!LO:TX:t=P:problem=podwójne staccato	!	!	!	!	!	!	!	!	!	!	!	!
.	.	.	.	.	.	.	16ccc`\LL	.	.	.	.	.	.	.	.	.	.	.	.
.	.	.	.	.	.	.	16ccc`\	.	.	.	.	.	.	.	.	.	.	.	.
!	!	!	!	!	!	!	!LO:TX:t=P:problem=podwójne staccato	!	!	!	!	!	!	!	!	!	!	!	!
8E\	7 #3	.	8g#X\	.	8b/ 8d/	.	16bb`\	.	8b\	e-	.	8e/	.	8e/	.	8ee\	.	8bb\	.
.	.	.	.	.	.	.	16bb`\JJ	.	.	.	.	.	.	.	.	.	.	.	.
=38	=38	=38	=38	=38	=38	=38	=38	=38	=38	=38	=38	=38	=38	=38	=38	=38	=38	=38	=38
4.F\	5 3	.	4.a\ 4.c\	.	4.a/ 4.f/	.	16aa\LL	.	(4.a\	-lej-	.	4c/	.	4c/	.	4.ff\	.	4aa\	.
.	.	.	.	.	.	.	16aa\	.	.	.	.	.	.	.	.	.	.	.	.
.	.	.	.	.	.	.	16aa\	.	.	.	.	.	.	.	.	.	.	.	.
.	.	.	.	.	.	.	16aa\JJ	.	.	.	.	.	.	.	.	.	.	.	.
.	.	.	.	.	.	.	16aa\LL	.	.	.	.	4r	.	4r	.	.	.	4gg\	.
.	.	.	.	.	.	.	16aa\	.	.	.	.	.	.	.	.	.	.	.	.
8C#X\	6 5	.	8e\	.	8g/ 8B-X/	.	16gg\	.	8g\)	.	.	.	.	.	.	8cc#X\	.	.	.
.	.	.	.	.	.	.	16gg\JJ	.	.	.	.	.	.	.	.	.	.	.	.
4D\	5 3	.	4.d/	.	4f/ 4A/	.	16ff\LL	.	4f\	-son	.	2r	.	2r	.	4dd\	.	4ff\	.
.	.	.	.	.	.	.	16ff\	.	.	.	.	.	.	.	.	.	.	.	.
.	.	.	.	.	.	.	16ff\	.	.	.	.	.	.	.	.	.	.	.	.
.	.	.	.	.	.	.	16ff\JJ	.	.	.	.	.	.	.	.	.	.	.	.
4F\	6 5 -3	.	.	.	4a-X/	.	16aa-X\LL	.	4a-X\	e-	.	.	.	.	.	4ff\	.	4aa-X\	.
.	.	.	.	.	.	.	16aa-X\	.	.	.	.	.	.	.	.	.	.	.	.
.	.	.	8d/	.	.	.	16aa-X\	.	.	.	.	.	.	.	.	.	.	.	.
.	.	.	.	.	.	.	16aa-X\JJ	.	.	.	.	.	.	.	.	.	.	.	.
*	*	*	*	*	*	*	*Xtremolo	*	*	*	*	*	*	*	*	*	*	*	*
!	!	!	!LO:LB:g=original	!	!	!	!	!	!	!	!	!	!	!	!	!	!	!	!
=39	=39	=39	=39	=39	=39	=39	=39	=39	=39	=39	=39	=39	=39	=39	=39	=39	=39	=39	=39
2G\ 2GG\	6 4	.	2e/ 2G/	.	2g/	.	2gg\	.	(2g\	-lej-	.	2G/	.	2g/	.	2ee\	.	2gg\	.
!	!	!	!	!	!	!	!	!	!LO:LB:g=original	!	!	!	!	!	!	!	!	!	!
4G\ 4GG\	#7 -4 2	.	4e-X/	.	4f#X/	.	4aa\	.	4a\	.	.	2r	.	2r	.	4ee-X\	.	4aa\	.
4G\ 4GG\	.	.	4d/ 4F/	.	4fn/	.	4bb\	.	4b\)	.	.	.	.	.	.	4dd\	.	4bb\	.
!	!	!	!	!	!	!	!	!	!	!	!	!	!	!	!	!	!	!LO:LB:g=original	!
=40	=40	=40	=40!|:	=40	=40	=40	=40!|:	=40	=40	=40	=40	=40	=40	=40	=40	=40	=40	=40	=40
8C\L	3	.	8c/L	.	8c/L	.	8ccc\L	.	(8cc\L	-son	.	8c/L	.	8cc/L	.	8cc/L	.	8ccc\L	.
8GG\	.	.	8G/	.	8G/J	.	8gg\	.	8g\J)	.	.	8G/	.	8g/	.	8g/	.	8gg\	.
!LO:TX:a:t=unisono	!	!	!	!	!	!	!	!	!	!	!	!	!	!	!	!	!	!	!
8C\	.	.	8c/	.	8c/L	.	8ccc\	.	(8cc\L	e-	.	8c/	.	8cc/	.	8cc/	.	8ccc\	.
8E\J	.	.	8e/J	.	8e/J	.	8eee\J	.	8ee\J)	.	.	8e/J	.	8ee/J	.	8ee/J	.	8eee\J	.
!LO:TX:t=P:problem=mixed beam	!	!	!	!	!	!	!	!	!	!	!	!	!	!	!	!	!	!	!
8F\L	.	.	8g\L	.	8g/L	.	4.gg\	.	(4.gg\	-lej-	.	4G/	.	4g/	.	8gg\L	.	4.ggg\	.
8GG/	8 3	.	8g\ 8B\	.	8g/J	.	.	.	.	.	.	.	.	.	.	8b\	.	.	.
8AA/	7 3	.	8g\ 8c\	.	8g/L	.	.	.	.	.	.	4r	.	4r	.	8cc\	.	.	.
8BB/J	6 3	.	8g\J 8d\	.	8b/J 8g/	.	8ff\	.	8ff\)	.	.	.	.	.	.	8dd\J	.	8fff\	.
=41	=41	=41	=41	=41	=41	=41	=41	=41	=41	=41	=41	=41	=41	=41	=41	=41	=41	=41	=41
4C/	5 3	.	4g/ 4G/	.	4cc/ 4e/	.	8ff\L	.	(8ff\L	-son	.	4c/	.	4c/	.	4cc\	.	8fff\L	.
.	.	.	.	.	.	.	8ee\	.	8ee\J)	.	.	.	.	.	.	.	.	8eee\J	.
4AA/	5 3	.	4c/	.	4a/ 4e/	.	8dd\	.	(8dd\L	e-	.	4c/	.	4c/	.	8dd\L	.	8ddd\L	.
.	.	.	.	.	.	.	8cc\J	.	8cc\J)	.	.	.	.	.	.	8cc\J	.	8ccc\J	.
4GG/	6 4	.	4e/ 4c/	.	4g/ 4G/	.	4ccT\	.	(4ccT\	-lej-	.	4c/	.	4c/	.	4ccS\	.	4cccT\	.
4GG/	x 7	.	4d/ 4B/	.	4f/ 4G/	.	8ee\L	.	8ee\L	.	.	4G/	.	4g/	.	8ee\L	.	8eee\L	.
.	.	.	.	.	.	.	8dd\J	.	8dd\J)	.	.	.	.	.	.	8dd\J	.	8bb\J	.
!	!	!	!	!	!	!	!LO:LB:g=original	!	!	!	!	!	!	!	!	!	!	!	!
=42	=42	=42	=42:|!	=42	=42	=42	=42:|!	=42	=42	=42	=42	=42	=42	=42	=42	=42	=42	=42	=42
!LO:TX:a:t=unis&colon;	!	!	!LO:TX:t=P:rep:problem	!	!	!	!LO:TX:t=P:rep:problem	!	!	!	!	!	!	!	!	!	!	!	!
8C\L	3	.	8c/Lyy	.	8c/L	.	8ccc\Lyy	.	(8cc\L	-son	.	8c/L	.	8c/L	.	8cc\L	.	8ccc\L	.
8GG\	.	.	8G/yy	.	8G/J	.	8gg\yy	.	8g\J)	.	.	8G/	.	8g/	.	8g\	.	8gg\	.
8C\	.	.	8c/yy	.	8c/L	.	8ccc\yy	.	(8cc\L	e-	.	8c/	.	8cc/	.	8cc\	.	8ccc\	.
8E\J	.	.	8e/Jyy	.	8e/J	.	8eee\Jyy	.	8ee\J)	.	.	8e/J	.	8ee/J	.	8ee\J	.	8eee\J	.
!LO:TX:t=P:problem=mixed beam	!	!	!	!	!	!	!	!	!	!	!	!	!	!	!	!	!	!	!
8F\L	.	.	8g\Lyy	.	8g/L	.	4.gg\yy	.	(4.gg\	-lej-	.	4G/	.	4g/	.	8gg\L	.	4.ggg\	.
8GG/	8 3	.	8g\yy 8B\yy	.	8g/	.	.	.	.	.	.	.	.	.	.	8b\	.	.	.
8AA/	7 3	.	8g\yy 8c\yy	.	8a/ 8g/	.	.	.	.	.	.	4r	.	4r	.	8cc\	.	.	.
8BB/J	6 3	.	8g\yyJ 8d\yy	.	8b/J 8g/	.	8ff\yy	.	8ff\)	.	.	.	.	.	.	8dd\J	.	8fff\	.
!	!	!	!	!	!LO:LB:g=original	!	!	!	!	!	!	!	!	!	!	!LO:LB:g=original	!	!	!
=43	=43	=43	=43	=43	=43	=43	=43	=43	=43	=43	=43	=43	=43	=43	=43	=43	=43	=43	=43
4C/	5 3	.	4g/yy 4G/yy	.	4cc/ 4e/	.	8ff\Lyy	.	(8ff\L	-son	.	4c/	.	4c/	.	4cc\	.	8fff\L	.
.	.	.	.	.	.	.	8ee\yy	.	8ee\J)	.	.	.	.	.	.	.	.	8eee\	.
4AA/	5 3	.	4c/yy	.	4a/ 4e/	.	8dd\yy	.	8dd\L	e-	.	4c/	.	4c/	.	8dd\L	.	8ddd\	.
.	.	.	.	.	.	.	8cc\Jyy	.	8cc\J	.	.	.	.	.	.	8cc\J	.	8ccc\J	.
4GG/	6 4	.	4e/yy 4c/yy	.	4g/ 4G/	.	4ccT\yy	.	(4ccT\	-lej-	.	4c/	.	4c/	.	4ccS\	.	4cccT\	.
4GG/	x 7	.	4d/yy 4B/yy	.	4f/ 4G/	.	8ee\Lyy	.	8ee\L	.	.	4G/	.	4g/	.	8ee\L	.	8eee\L	.
.	.	.	.	.	.	.	8dd\Jyy	.	8dd\J)	.	.	.	.	.	.	8dd\J	.	8ddd\J	.
!	!	!	!	!	!	!	!LO:LB:g=original	!	!	!	!	!	!	!	!	!	!	!	!
=44	=44	=44	=44	=44	=44	=44	=44	=44	=44	=44	=44	=44	=44	=44	=44	=44	=44	=44	=44
4C/	3	.	4e/ 4c/	.	4g/ 4G/	.	4cc/ 4e/	.	4cc\	-son	.	4c/	.	4c/	.	4cc\	.	4ccc\	.
4r	.	.	4r	ff	4r	.	4r	.	4r	.	.	4r	.	4r	.	4r	.	4r	.
!	!	!	!	!	!	!	!	!	!	!	!	!	!LO:DY:rj	!	!LO:DY:rj	!	!	!	!
2C/	-7 4	.	16F/LL	.	2a-X/ 2c/	.	2cc/ 2f/	.	2r	.	.	2c/	p	2c/	p	16f/LL	.	2ccc\	.
.	.	.	16E/	.	.	.	.	.	.	.	.	.	.	.	.	16e/	.	.	.
.	.	.	16F/	.	.	.	.	.	.	.	.	.	.	.	.	16f/	.	.	.
.	.	.	16G/JJ	.	.	.	.	.	.	.	.	.	.	.	.	16g/JJ	.	.	.
.	.	.	16A-X/LL	.	.	.	.	.	.	.	.	.	.	.	.	16a-X/LL	.	.	.
.	.	.	16G/	.	.	.	.	.	.	.	.	.	.	.	.	16g/	.	.	.
.	.	.	16A-/	.	.	.	.	.	.	.	.	.	.	.	.	16a-/	.	.	.
.	.	.	16BX/JJ	.	.	.	.	.	.	.	.	.	.	.	.	16bn/JJ	.	.	.
!LO:LB;g=original	!	!	!	!	!	!	!	!	!	!	!	!	!	!	!	!	!	!	!
=45	=45	=45	=45	=45	=45	=45	=45	=45	=45	=45	=45	=45	=45	=45	=45	=45	=45	=45	=45
*	*	*	*rep	*	*rep	*	*	*	*	*	*	*	*	*	*	*	*	*rep	*
!	!	!	!	!	!	!	!	!	!LO:TX:a:t=3	!	!	!	!	!	!	!	!	!	!
4C/	5 3	.	4e/ 4c/	.	4g/ 4G/	.	4cc/ 4e/	.	0r	.	.	4c/yy	.	4c/	.	4cc\yy	.	4ccc\	.
4r	.	.	4r	ff	4r	.	4r	.	.	.	.	4ryy	.	4r	.	4ryy	.	4r	.
!	!	!	!	!	!	!	!	!	!	!	!	!	!LO:DY:rj	!	!LO:DY:rj	!	!	!	!
2C/	-6 4	.	16F/LL	.	2a-X/ 2c/	.	2cc/ 2f/	.	.	.	.	2c/yy	pyy	2c/	p	16f/LLyy	.	2ccc\	.
.	.	.	16E/	.	.	.	.	.	.	.	.	.	.	.	.	16e/yy	.	.	.
.	.	.	16F/	.	.	.	.	.	.	.	.	.	.	.	.	16f/yy	.	.	.
.	.	.	16G/JJ	.	.	.	.	.	.	.	.	.	.	.	.	16g/JJyy	.	.	.
.	.	.	16A-X/LL	.	.	.	.	.	.	.	.	.	.	.	.	16a-X/LLyy	.	.	.
.	.	.	16G/	.	.	.	.	.	.	.	.	.	.	.	.	16g/yy	.	.	.
.	.	.	16A-/	.	.	.	.	.	.	.	.	.	.	.	.	16a-/yy	.	.	.
.	.	.	16BX/JJ	.	.	.	.	.	.	.	.	.	.	.	.	16bn/JJyy	.	.	.
*	*	*	*Xrep	*	*Xrep	*	*	*	*	*	*	*	*	*	*	*	*	*Xrep	*
=46	=46	=46	=46	=46	=46	=46	=46	=46	=46	=46	=46	=46	=46	=46	=46	=46	=46	=46	=46
4C/	5 3	.	4e/ 4c/	.	4g/ 4G/	.	4cc/ 4e/	.	.	.	.	4c/	.	4c/	.	4cc\	.	4ccc\	.
4r	_ _	.	4r	.	4r	.	4r	.	.	.	.	4r	.	4r	.	4r	.	4r	.
4.C/	.	.	4.G/	.	4.c/	.	4.e/	.	.	.	.	4.G/	.	4.e/	.	4.e/	.	2r	.
8C/	.	.	8G/	p	8c/	.	8e/	.	.	.	.	8G/	.	8e/	.	8e/	.	.	.
=47	=47	=47	=47	=47	=47	=47	=47	=47	=47	=47	=47	=47	=47	=47	=47	=47	=47	=47	=47
!	!	!	!	!	!	!	!	!	!	!	!	!	!	!	!	!	!	!LO:TX:a:t=1	!
2C/	.	.	1r	.	2c/	.	2e/	.	1r	.	.	2G/	.	2e/	.	2e/	.	1r	.
2r	x	.	.	.	2r	.	2r	.	.	.	.	2r	.	2r	.	2r	.	.	.
==	==	==	==	==	==	==	==	==	==	==	==	==	==	==	==	==	==	==	==
*-	*-	*-	*-	*-	*-	*-	*-	*-	*-	*-	*-	*-	*-	*-	*-	*-	*-	*-	*-
!!!system-decoration: [(s1,s2)][(s3,s4)][(s5)][(s6,s7,s8)][(s9)]
!!!ENC: Andrzej Gręziak
!!!END: 2020-10-21
!!!ENC: Leszek Kubiak
!!!END: 2022-02-08
!!!YEC: Copyright 2022 Narodowy Instytut Fryderyka Chopina (https://polishscores.org)
!!!YEM: License CC-BY-4.0 (https://creativecommons.org/licenses/by/4.0)
